X: 37597
T: Smith's A Gallant Fireman, The
R: strathspey
M: 4/4
K: Dmajor
D2-.D>F {F}A2-.A>B|A>B {B}d>A F2TE<D|E2-E>F E2-.E>f|{f}g>f e<d TB2B<d|
B,/D/z z>F {F}A2-A>B|A>B {B}d>A F2TE<D|{EF}G>B G<B F>A F<A|E>F G<A B2(3ABc|
d2f<e- .e>d d>B|A>B {B}d>A F2TE<D|B<e e>f Te2e<f|{f}g>f e<d B2(3ABc|
d2f<e- .e>d d>B|A>B {B}d>A F2TE<D|{EF}G>B G<B F>A F<A|E>F G<A B2 (3ABc||[D2d2]||

